components/Common/Svg/svgs/pencilLine.svg

<svg width="40" height="40" viewBox="0 0 40 40" fill="none" xmlns="http://www.w3.org/2000/svg">
<path fill-rule="evenodd" clip-rule="evenodd" d="M26.25 6.51779C26.1837 6.51779 26.1201 6.54413 26.0732 6.59101L22.6642 10L30 17.3358L33.409 13.9268C33.4559 13.8799 33.4822 13.8163 33.4822 13.75C33.4822 13.6837 33.4559 13.6201 33.409 13.5732L26.4268 6.59101C26.3799 6.54413 26.3163 6.51779 26.25 6.51779ZM20.5429 9.29289L20.5385 9.2973L5.90901 23.9268C5.70008 24.1357 5.53434 24.3838 5.42127 24.6568C5.41669 24.6678 5.4122 24.6789 5.4078 24.69C5.39718 24.7152 5.38763 24.7407 5.37916 24.7664C5.29378 25.0074 5.25 25.2615 5.25 25.5178V32.5C5.25 33.0968 5.48705 33.6691 5.90901 34.091C6.33097 34.513 6.90326 34.75 7.5 34.75H15C15.0011 34.75 15.0023 34.75 15.0034 34.75H33.7496C34.3019 34.75 34.7496 34.3023 34.7496 33.75C34.7496 33.1977 34.3019 32.75 33.7496 32.75H17.4142L30.7071 19.4571L34.8232 15.341C35.2452 14.9191 35.4822 14.3468 35.4822 13.75C35.4822 13.1533 35.2452 12.581 34.8232 12.159L27.841 5.1768C27.419 4.75484 26.8467 4.51779 26.25 4.51779C25.6533 4.51779 25.081 4.75484 24.659 5.1768L20.5473 9.28852L20.5429 9.29289ZM14.9998 32.336L28.5858 18.75L21.25 11.4142L7.664 25.0002L14.9998 32.336ZM7.25 27.4147V32.5C7.25 32.5663 7.27634 32.6299 7.32322 32.6768C7.37011 32.7237 7.43369 32.75 7.5 32.75H12.5854L7.25 27.4147Z" fill="#161616"/>
</svg>

<svg width="40" height="40" viewBox="0 0 40 40" fill="none" xmlns="http://www.w3.org/2000/svg"><path fill-rule="evenodd" clip-rule="evenodd" d="M26.25 6.518a.25.25 0 0 0-.177.073L22.664 10 30 17.336l3.409-3.41a.25.25 0 0 0 0-.353l-6.982-6.982a.25.25 0 0 0-.177-.073Zm-5.707 2.775-.005.004L5.91 23.927a2.25 2.25 0 0 0-.659 1.59V32.5a2.25 2.25 0 0 0 2.25 2.25h26.25a1 1 0 1 0 0-2H17.414l13.293-13.293 4.116-4.116a2.25 2.25 0 0 0 0-3.182l-6.982-6.982a2.25 2.25 0 0 0-3.182 0l-4.112 4.112-.004.004ZM15 32.336 28.586 18.75l-7.336-7.336L7.664 25 15 32.336Zm-7.75-4.921V32.5a.25.25 0 0 0 .25.25h5.085L7.25 27.415Z" fill="#161616"/></svg>
